img/svg/gmail.svg

<svg width="20" height="20" viewBox="0 0 20 20" fill="none" xmlns="http://www.w3.org/2000/svg">
<path d="M18.9441 4.79724L17.6673 17.6179H2.33234L1.30371 5.04537L9.99984 9.9142L18.9441 4.79724Z" fill="#F2F2F2"/>
<path d="M18.5111 2.3822L9.99994 10.3774L1.48877 2.3822H9.99994H18.5111Z" fill="#F2F2F2"/>
<path d="M2.3325 6.07389V17.6178H0.94293C0.422344 17.6178 0 17.1955 0 16.6749V4.37366L1.52344 4.41518L2.3325 6.07389Z" fill="#F14336"/>
<path d="M20 4.37374V16.675C20 17.1956 19.5776 17.6179 19.0565 17.6179H17.6675V6.07397L18.4367 4.25659L20 4.37374Z" fill="#D32E2A"/>
<path d="M20 3.32513V4.37376L17.6675 6.074L10 11.6626L2.3325 6.074L0 4.37376V3.32513C0 2.80455 0.422344 2.3822 0.94293 2.3822H1.48883L10 8.58568L18.5112 2.3822H19.0566C19.5777 2.3822 20 2.80451 20 3.32513Z" fill="#F14336"/>
<path d="M2.3325 6.07389L0 5.71225V4.37366L2.3325 6.07389Z" fill="#D32E2A"/>
</svg>

<svg width="20" height="20" viewBox="0 0 20 20" fill="none" xmlns="http://www.w3.org/2000/svg"><path d="M18.944 4.797l-1.277 12.82H2.332L1.304 5.046 10 9.915l8.944-5.118z" fill="#F2F2F2"/><path d="M18.511 2.382L10 10.377 1.489 2.382H18.51z" fill="#F2F2F2"/><path d="M2.333 6.074v11.544H.943A.943.943 0 010 16.675V4.374l1.523.041.81 1.659z" fill="#F14336"/><path d="M20 4.374v12.301c0 .52-.422.943-.944.943h-1.389V6.074l.77-1.817L20 4.374z" fill="#D32E2A"/><path d="M20 3.325v1.049l-2.332 1.7L10 11.663 2.332 6.074 0 4.374V3.325c0-.52.422-.943.943-.943h.546L10 8.586l8.511-6.204h.546c.52 0 .943.423.943.943z" fill="#F14336"/><path d="M2.333 6.074L0 5.712V4.374l2.333 1.7z" fill="#D32E2A"/></svg>
